dist/img/SAUNA/icon/heating.svg

<svg width="18" height="18" viewBox="0 0 18 18" fill="none" xmlns="http://www.w3.org/2000/svg">
<path d="M1.96054 15.2607C1.79019 15.1932 1.62947 15.116 1.52983 14.9457C1.40769 14.7303 1.40447 13.8882 1.52983 13.676C1.64233 13.4896 1.81269 13.3868 2.02804 13.3675C2.06983 13.3643 2.11483 13.3643 2.15661 13.3643C6.74019 13.3643 11.3206 13.3643 15.9041 13.3643C16.2738 13.3643 16.5406 13.5153 16.5824 13.8239C16.6274 14.1421 16.6177 14.4732 16.5824 14.7946C16.5534 15.055 16.3284 15.1707 16.1002 15.2575C11.3881 15.2607 6.67591 15.2607 1.96054 15.2607Z" fill="#2F2F2F"/>
<path d="M10 5.67995C9.9973 6.24914 9.84316 6.91766 9.59438 7.55179C9.44294 7.94144 9.27258 8.31963 9.15901 8.7322C8.9589 9.45419 9.04273 10.138 9.38616 10.7568C9.63764 11.2076 9.53218 11.7615 9.16712 11.9563C8.96972 12.0633 8.73175 11.9716 8.57221 11.7042C8.13684 10.9555 7.94754 10.096 8.01244 9.12949C8.05571 8.48007 8.21796 7.88414 8.45593 7.32641C8.6371 6.90238 8.8291 6.48599 8.90482 5.98938C9.00217 5.35142 8.91022 4.77841 8.62358 4.26652C8.46945 3.99147 8.42618 3.70115 8.54246 3.38026C8.68037 3.00207 9.05895 2.87601 9.29692 3.1396C9.56733 3.43374 9.71065 3.85395 9.83505 4.28562C9.94862 4.68291 10 5.09548 10 5.67995Z" fill="#2F2F2F" stroke="#2F2F2F" stroke-width="0.4"/>
<path d="M14 5.5437C14 6.27363 13.8229 6.91948 13.576 7.55386C13.423 7.94748 13.2539 8.33346 13.1412 8.75002C12.948 9.46083 13.0312 10.1334 13.364 10.7411C13.6189 11.2035 13.5196 11.7576 13.1546 11.9563C12.9587 12.0633 12.7199 11.9716 12.5669 11.7041C12.1402 10.9627 11.9496 10.1143 12.0114 9.15128C12.0543 8.47868 12.2207 7.86723 12.4649 7.29781C12.634 6.90037 12.8084 6.51057 12.8863 6.05198C12.999 5.38702 12.9104 4.79467 12.6152 4.25583C12.4112 3.88131 12.4247 3.4724 12.6528 3.18196C12.8245 2.96031 13.1117 2.93356 13.2942 3.14375C13.5679 3.45712 13.7316 3.88513 13.8363 4.34755C13.9168 4.72206 13.9651 4.87493 14 5.5437Z" fill="#2F2F2F" stroke="#2F2F2F" stroke-width="0.4"/>
<path d="M4 9.28974C4 8.74739 4.15456 8.08664 4.40132 7.45644C4.55589 7.06304 4.72943 6.67728 4.84332 6.26097C5.04127 5.54675 4.95992 4.86308 4.61825 4.25198C4.36336 3.79365 4.46911 3.22456 4.83518 3.04123C5.03856 2.93811 5.27176 3.02978 5.42903 3.30095C5.86018 4.04573 6.05271 4.89363 5.98763 5.85612C5.94424 6.51687 5.77341 7.10887 5.54292 7.67796C5.38836 8.06372 5.22295 8.4533 5.12533 8.86961C4.96534 9.538 5.06296 10.1758 5.37751 10.7373C5.57004 11.0849 5.57004 11.4935 5.38294 11.7609C5.13618 12.1123 4.78366 12.0741 4.54775 11.6616C4.1871 11.0237 4.00271 10.2942 4 9.28974Z" fill="#2F2F2F" stroke="#2F2F2F" stroke-width="0.4"/>
</svg>

<svg width="18" height="18" viewBox="0 0 18 18" fill="none" xmlns="http://www.w3.org/2000/svg"><path d="M1.96 15.26c-.17-.067-.33-.144-.43-.314-.122-.216-.126-1.058 0-1.27a.62.62 0 01.498-.309c.042-.003.087-.003.129-.003h13.747c.37 0 .637.151.678.46.045.318.036.65 0 .97-.029.261-.254.377-.482.463-4.712.004-9.424.004-14.14.004z" fill="#2F2F2F"/><path d="M10 5.68c-.003.57-.157 1.238-.406 1.872-.151.39-.321.768-.435 1.18-.2.722-.116 1.406.227 2.025.252.45.146 1.005-.219 1.2-.197.106-.435.015-.595-.253-.435-.748-.624-1.608-.56-2.575a5.507 5.507 0 01.444-1.803c.181-.424.373-.84.449-1.337.097-.638.005-1.21-.281-1.722a1.016 1.016 0 01-.082-.887c.138-.378.517-.504.755-.24.27.294.414.714.538 1.146.114.397.165.81.165 1.394zm4-.136c0 .73-.177 1.375-.424 2.01-.153.393-.322.78-.435 1.196-.193.71-.11 1.383.223 1.991.255.463.156 1.017-.21 1.215-.195.107-.434.016-.587-.252-.427-.741-.617-1.59-.556-2.553a5.56 5.56 0 01.454-1.853c.169-.398.343-.787.421-1.246.113-.665.024-1.257-.27-1.796-.205-.375-.191-.784.037-1.074.171-.222.459-.248.641-.038.274.313.438.741.542 1.204.08.374.13.527.164 1.196zM4 9.29c0-.543.155-1.203.401-1.834.155-.393.328-.779.442-1.195.198-.714.117-1.398-.225-2.009-.255-.458-.149-1.027.217-1.21.204-.104.437-.012.594.259.431.745.624 1.593.559 2.555-.044.66-.215 1.253-.445 1.822-.155.386-.32.775-.418 1.192a2.533 2.533 0 00.253 1.867c.192.348.192.756.005 1.024-.247.351-.6.313-.835-.1-.36-.637-.545-1.367-.548-2.371z" fill="#2F2F2F" stroke="#2F2F2F" stroke-width=".4"/></svg>
